!!!COM:	Agricola, Alexander
!!!CDT:	~1446-1506/08/15
!!!COA:	Josquin des Prez
!!!CDT2:	~1450-1521/08/27
!!!OTL:	L'heure est venue / Circumdederunt me
!!!AGN:	Chanson; Virelai
!!!SCT:	NJE 27.23
!!!SCA:	New Josquin Edition 27.23
!!!voices:	3
**kern	**kern	**kern
*staff3	*staff2	*staff1
*Ivox	*Ivox	*Ivox
*I"Contra	*I"Tenor	*I"Superius
*I'C	*I'T	*I'S
*>[A,B,B,A,A]	*>[A,B,B,A,A]	*>[A,B,B,A,A]
*>norep[A,B,A]	*>norep[A,B,A]	*>norep[A,B,A]
*>A	*>A	*>A
*clefF4	*clefGv2	*clefG2
*k[b-]	*k[]	*k[]
*M2/1	*M2/1	*M2/1
*met(C|)	*met(C|)	*met(C|)
=1-	=1-	=1-
!!LO:TX:Z=30:t=Form&colon; virelai (AbbaA)
0r	0d\	0d/
=2	=2	=2
0r	0d\	0f/
=3	=3	=3
0r	0c\	1.e/
.	.	2d/
=4	=4	=4
0r	1.A/	1c/
.	.	[1f/
.	2B\	.
=5	=5	=5
0r	1c\	2f/]
.	.	4e/
.	.	4d/
.	[1d\	1f/
=6	=6	=6
0r	1d\]	0e/
.	1c#i\	.
=7	=7	=7
0D;\	0d;\	0d;/
=8	=8	=8
[0D\	[0f\	[0a/
=9	=9	=9
0D\]	1f\]	1a/]
.	1e\	1g/
=10	=10	=10
0D\	0d\	0f/
=11	=11	=11
[0C	1.e\	0g/
.	2d\	.
=12	=12	=12
0C]	1.c\	[0e/
.	4B/	.
.	4A/	.
=13	=13	=13
1.C/	1G/	1.e/]
.	1A/	.
4BB-/	.	4d/
4AA/	.	4c/
=14	=14	=14
[0GG/	[0B\	1d/
.	.	[1g/
=15	=15	=15
0GG/]	0B\]	2g/]
.	.	2f/
.	.	2e/
.	.	2d/
=16	=16	=16
0AA;/	0A;/	0c;/
=17	=17	=17
0r	0d\	[0f
=18	=18	=18
0r	1.d\	0f]
.	4c\	.
.	4B\	.
=19	=19	=19
0r	1A/	1f/
.	2G/	1e/
.	[2c\	.
=20	=20	=20
0r	2c\]	0d/
.	4B/	.
.	4A/	.
.	1B\	.
=21	=21	=21
0r	1c\	1c/
.	1d\	1f/
=22	=22	=22
0r	1c\	1e/
.	1A/	[1a/
=23	=23	=23
0r	0B-i\	1a/]
.	.	1g/
=24	=24	=24
[0D\	1.A/	0a/
.	[2F/	.
=25	=25	=25
1D\]	2F/	1f/
.	4E/	.
.	4D/	.
1E\	1C/	1g/
=26	=26	=26
1.F\	1r	1.a/
.	2.c\	.
4E\	.	4g/
4D\	4d\	4f/
=27	=27	=27
0C/	2e\	2.g/
.	1f\	.
.	.	4f/
.	.	1g/
.	2e\	.
=28	=28	=28
1D\	1f\	[0f/
[1BB-/	[1d\	.
=29	=29	=29
2BB-/]	2d\]	0f/]
2C/	4c\	.
.	4B\	.
1D\	1A/	.
=30	=30	=30
0GG/	1.B-\	1r
.	.	1d/
.	2A/	.
=31	=31	=31
0r	1G/	1e/
.	1A/	1f/
=32	=32	=32
1r	1G/	0g/
1GG/	1B-i\	.
=33	=33	=33
1.AA/	0A/	1.c/
2BB-/	.	2d/
=34	=34	=34
1.C/	1.G/	1.e/
4BB-/	2A/	2f/
4AA/	.	.
=35	=35	=35
1GG/	1B\	1g/
1FF/	2A/	1a/
.	4G/	.
.	4F/	.
=36	=36	=36
1C/	1E/	2g/
.	.	2e/
1D\	1D/	1f/
=37	=37	=37
1AA/	1C/	2.e/
.	.	4d/
1BB-/	1D/	[1d/
=38	=38	=38
0AA/	0E/	2d/]
.	.	4c#i/
.	.	4B/
.	.	1c#i/
=39	=39	=39
0A;\	0D;/	0d;/
=40	=40	=40
0r	0r	0r
=41	=41	=41
0AA/	0c\	0e/
=42	=42	=42
1AA/	1c\	1e/
[1AA/	[1c\	[1e/
=43	=43	=43
2AA/]	2c\]	1e/]
2BB-/	4B\	.
.	4A\	.
1C/	1G/	1e/
=44	=44	=44
0FF/	0A/	1.f/
.	.	4e/
.	.	4d/
=45	=45	=45
[0C	0G/	[0e
=46	=46	=46
0C_	1r	0e]
.	[1c\	.
=47	=47	=47
0C/]	2c\	1r
.	2d\	.
.	1e\	1g/
=48	=48	=48
0r	1.f\	1a/
.	.	1a/
.	2e\	.
=49	=49	=49
0r	1d\	1b\
.	1c\	1cc\
=50	=50	=50
0r	1d\	2b\
.	.	1a/
.	1f\	.
.	.	4g/
.	.	4f/
=51	=51	=51
0r	1e\	1g/
.	1c\	1e/
=52	=52	=52
0r	2B\	1f/
.	1A/	.
.	.	1f/
.	4G/	.
.	4F/	.
=53	=53	=53
0r	1G/	1e/
.	2F/	[1f/
.	[2A/	.
=54	=54	=54
0r	2A/]	2f/]
.	2G/	2g/
.	[1A/	2f/
.	.	2e/
=55	=55	=55
0r	2A/]	0d/
.	4B/	.
.	4A/	.
.	1B\	.
=56	=56	=56
[0AA/	1.c\	[0c/
.	2B\	.
=57	=57	=57
1AA/]	1A/	0c/]
[1C/	2G/	.
.	[2A/	.
=58	=58	=58
2C/]	2A/]	0r
2D\	4G/	.
.	4F/	.
1E\	1G/	.
=59	=59	=59
1F\	[0F	[0A/
[1D\	.	.
=60	=60	=60
2D\]	0F]	1A/]
4C\	.	.
4BB-\	.	.
2AA\	.	[1c/
[2A\	.	.
=61	=61	=61
2A\]	0r	2c/]
2B-\	.	2d/
1G\	.	1e/
=62	=62	=62
0F\	[0A/	1.f/
.	.	2g/
=63	=63	=63
0r	1A/]	1a/
.	[1c\	2g/
.	.	[2a/
=64	=64	=64
1r	2c\]	2a/]
.	2d\	4g/
.	.	4f/J
1C/	1e\	1g/
=65	=65	=65
0D\	1f\	1.f/
.	[1d\	.
.	.	2e/
=66	=66	=66
0GG/	2d\]	1d/
.	2c/	.
.	2B-/	1d/
.	4A/	.
.	4G/	.
=67	=67	=67
1r	1A/	1c/
[1GG/	[1B-\	[1g/
=68	=68	=68
1GG/]	2B-\]	1g\]
.	2A/	.
1AA/	2G/	[1f/
.	2F/	.
=69	=69	=69
1BB-/	0G/	1f/]
1C/	.	1e/
=70	=70	=70
[0D\	[0F/	0f/
=71	=71	=71
0D\]	0F/]	1r
.	.	1f/
=72	=72	=72
1.C/	1r	1e/
.	1c\	1e/
2BB-/	.	.
=73	=73	=73
0GG/	1B\	0d/
.	1B\	.
=74	=74	=74
1.AA/	0A/	0c/
2BB-/	.	.
=75	=75	=75
1C/	0G/	1r
1BB-/	.	1d/
=76	=76	=76
1.C/	1r	1e/
.	1G/	1e/
2E\	.	.
=77	=77	=77
2.D/	1A/	1.f/
4C/	.	.
1D\	1B\	.
.	.	4e/
.	.	4d/
=78	=78	=78
1C/	1.c\	1e/
2r	.	1f/
2F\	4B/	.
.	4A/	.
=79	=79	=79
2.E\	1B\	1.g/
4D\	.	.
1E\	1c\	.
.	.	4f/
.	.	4e/
=80	=80	=80
0D\	1.d\	0f/
.	2c\	.
=81	=81	=81
1E\	1B\	1g/
1F\	1A/	[1a/
=82	=82	=82
0E\	1B\	2a/]
.	.	1g/
.	1G/	.
.	.	4f/
.	.	4e/
=83	=83	=83
1D\	0A/	1f/
1C/	.	[1e/
=84	=84	=84
1D\	1F/	1e/]
1GG/	1G/	[1d/
=85	=85	=85
0AA/	0E/	1d/]
.	.	1c#i/
=86	=86	=86
0D\l	0D/l	0d/l
!!LO:LB:i:g=z
=87||	=87||	=87||
*>B	*>B	*>B
!!section: Despitant fortune mauldite
!!!OMD: Despitant fortune mauldite
0r	0r	1A/
.	.	1A/
=88	=88	=88
0r	1A/	1.c/
.	1A/	.
.	.	2d/
=89	=89	=89
0r	1.c\	0e/
.	2d\	.
=90	=90	=90
0r	0e\	1c/
.	.	[1g/
=91	=91	=91
0r	1.c\	1g/]
.	.	1a/
.	4B/	.
.	4A/	.
=92	=92	=92
0r	1G/	1.b\
.	1d\	.
.	.	4a/
.	.	4b/
=93	=93	=93
0r	1e\	1cc\
.	2d\	2b/
.	[2f\	[2a/
=94	=94	=94
0r	4f\]	4a/]
.	4e\	4g/
.	4d\	4f/
.	4c\	4e/
.	2d\	2f/
.	2c\	[2e/
=95	=95	=95
0r	1A/	2e/]
.	.	1a/
.	1B\	.
.	.	2g/
=96	=96	=96
[0D\	1A/	0a/
.	[1F/	.
=97	=97	=97
1D\]	2F/]	0r
.	2D/	.
1C/	1E/	.
=98	=98	=98
0F\	1D/	0a/
.	[1d\	.
=99	=99	=99
0E\	1d\]	0g/
.	1c#i\	.
=100	=100	=100
0D\	0d\	0f/
=101	=101	=101
0A\	1r	1f/
.	1c\	1e/
=102	=102	=102
1.D\	1d\	1.f/
.	1d\	.
4C/	.	4e/
4BB-/	.	4d/
=103	=103	=103
2.AA/	1.e\	0c/
4GG/	.	.
1AA/	.	.
.	4d\	.
.	4c\	.
=104	=104	=104
0GG/	2.B/	0d/
.	4A/	.
.	1B\	.
=105	=105	=105
0D\	1A/	1r
.	2r	1f/
.	2d\	.
=106	=106	=106
0E\	2c\	1g/
.	1B-\	.
.	.	1g/
.	4A/	.
.	4G/	.
=107	=107	=107
1D\	1F/	0a/
[1F\	1c\	.
=108	=108	=108
2F\]	1d\	1.a/
2E\	.	.
1D\	1f\	.
.	.	4g/
.	.	4f/
=109	=109	=109
0C/	0e\	0g/
=110	=110	=110
1r	1r	1r
[1C/	1e\	1g/
=111	=111	=111
1C/]	1e\	1g/
1C/	1e\	1g/
=112	=112	=112
1F\	1c\	1a/
1G\	1B\	[1g/
=113	=113	=113
1C/	1c\	2g/]
.	.	2f/
1D\	1F/	[1f/
=114	=114	=114
0C/	1.G/	1f/]
.	.	1e/
.	4F/	.
.	4E/	.
=115	=115	=115
0BB-/	0D/	1f/
.	.	1d/
=116	=116	=116
1AA/	1E/	0c/
1FF/	[1F/	.
=117	=117	=117
0GG/	2F/]	1r
.	4E/	.
.	4D/	.
.	1E/	1g/
=118	=118	=118
0FF/	0F/	1a/
.	.	1a/
=119	=119	=119
1r	1c\	2g/
.	.	1a/
1FF/	[1c\	.
.	.	4g/
.	.	4f/
=120	=120	=120
1.C/	2c\]	1e/
.	4B/	.
.	4A/	.
.	1G/	1e/
2E\	.	.
=121	=121	=121
2.D/	1A/	1f/
4C/	.	.
1D\	1B\	1f/
=122	=122	=122
1.C/	1c\	2e/
.	.	2.g/
.	1G/	.
.	.	4f/
2BB-/	.	4e/
.	.	4d/
=123	=123	=123
1AA/	1A/	1c/
1BB-/	1D/	[1d/
=124	=124	=124
0AA/	0E/	1d/]
.	.	1c#i/
=125	=125	=125
0BB-/	1D/	0d/
.	1F/	.
=126	=126	=126
1C/	1E/	1c/
[1D\	[1A/	1A/
=127	=127	=127
1D\]	1A/]	0B/
1E\	1G/	.
=128	=128	=128
1.F\	1.A/	[0A/l
2E\	2G/	.
=129	=129	=129
1D\	1F/	0A_
1C/	1E/	.
=130	=130	=130
1.D\	1.F/	0A_
2C/	4E/	.
.	4D/	.
=131	=131	=131
0AAl	0El	0A]
==	==	==
*-	*-	*-
!!!RDF**kern: l=long note in original notation
!!!RDF**kern: i=editorial accidental
!!!RDF**kern: V=start of tuplet marker
!!!RDF**kern: Z=end of tuplet marker
!!!ENC:	Megan K. Eagen 05/28/2012
!!!END:	2012/06/04/
!!!EED:	Jesse Rodin
!!!EEV:	2012/06/21/
!!attribution-level@Jos: 6 (very doubtful)
!!!ONB:	Translated from MusicXML and edited on 2012/06/21/ by Craig Sapp
!!muse2ps: C^Agricola/Josquin?\n@{SCT}^i2I150v85,85,150Q16c80
